X:100
T:The Bee Park
M:4/4
L:1/8
Q:120
C:Joe Leddy
K:D
B,EEF G3 A | (3Bcd Ad Beef | gefd edBd | edBA GBFA| E3 F G3 d | dBAd Bee
f | gefd edBA | G2 FG E2 :| e3 d Bebe | d2 ad bdad | e3 d (3Bcd fa | bf
f2 fe e2 | e2 be Bebe | d2 ad bdad | GBFB edBA | G2 FG E3 ||
